X: 075
M: 2/4
L: 1/8
K: D
ded def | gag g>b | agf edc | ded d>A |\
ded def | gag g>b | agf edc | d2 d :|
|: !p!A |\
aba fga | gag efg | fef def | efe A>!f!A |\
ded def | gag g>b | agf edc | d2 D :|
|: !pp!E |\
=FGA AGF | EFG GFE | DEF FED | CDE A,>!f!A |\
ded def | gag g>b | agf edc | d2 D :|

